svgs/duotone/plug-circle-exclamation.svg

<svg xmlns="http://www.w3.org/2000/svg" viewBox="0 0 576 512"><!--! Font Awesome Pro 6.4.2 by @fontawesome - https://fontawesome.com License - https://fontawesome.com/license (Commercial License) Copyright 2023 Fonticons, Inc. --><path class="fa-primary" style="fill:var(--fa-primary-color,inherit);opacity:var(--fa-primary-opacity,1);" d="M288 368a144 144 0 1 1 288 0 144 144 0 1 1 -288 0zm168 72a24 24 0 1 0 -48 0 24 24 0 1 0 48 0zm-8-152c0-8.8-7.2-16-16-16s-16 7.2-16 16v80c0 8.8 7.2 16 16 16s16-7.2 16-16V288z"/><path class="fa-secondary" style="fill:var(--fa-secondary-color,inherit);opacity:var(--fa-secondary-opacity,.4);" d="M128 32v96H64V32C64 14.3 78.3 0 96 0s32 14.3 32 32zm192 0v96H256V32c0-17.7 14.3-32 32-32s32 14.3 32 32zM0 192c0-17.7 14.3-32 32-32H352c17.7 0 32 14.3 32 32c0 2.3-.3 4.6-.7 6.8C309.8 220 256 287.7 256 368c0 11.4 1.1 22.5 3.1 33.3c-11.1 5.1-22.9 9-35.1 11.5V480c0 17.7-14.3 32-32 32s-32-14.3-32-32V412.8C87 398 32 333.4 32 256V224c-17.7 0-32-14.3-32-32z"/></svg>

<svg xmlns="http://www.w3.org/2000/svg" viewBox="0 0 576 512"><!--! Font Awesome Pro 6.1.1 by @fontawesome - https://fontawesome.com License - https://fontawesome.com/license (Commercial License) Copyright 2022 Fonticons, Inc. --><defs><style>.fa-secondary{opacity:.4}</style></defs><path class="fa-primary" d="M576 368C576 447.5 511.5 512 432 512C352.5 512 288 447.5 288 368C288 288.5 352.5 224 432 224C511.5 224 576 288.5 576 368zM432 416C418.7 416 408 426.7 408 440C408 453.3 418.7 464 432 464C445.3 464 456 453.3 456 440C456 426.7 445.3 416 432 416zM447.1 288C447.1 279.2 440.8 272 431.1 272C423.2 272 415.1 279.2 415.1 288V368C415.1 376.8 423.2 384 431.1 384C440.8 384 447.1 376.8 447.1 368V288z"/><path class="fa-secondary" d="M128 128H64V32C64 14.33 78.33 0 96 0C113.7 0 128 14.33 128 32V128zM320 128H256V32C256 14.33 270.3 0 288 0C305.7 0 320 14.33 320 32V128zM0 192C0 174.3 14.33 160 32 160H352C369.7 160 384 174.3 384 192C384 194.3 383.7 196.6 383.3 198.8C309.8 219.1 256 287.7 256 368C256 379.4 257.1 390.5 259.1 401.3C248.1 406.4 236.3 410.3 224 412.8V512H160V412.8C86.97 397.1 32 333.4 32 256V224C14.33 224 0 209.7 0 192V192z"/></svg>
